X:133
T:Reel 133
M:4/4
K:Gmaj
L:1/8
ge|dGBG FGFA|d>G (3GFG B>G (3GFG |d>G (3GFG dcBA|BcAF G2:|z2|d>g (3gfg d>g (3gfg |d>g (3gfg a2g2|d>g (3gfg a>f (3dff |dc'ag fdef|dgg (3gfg agfd|d>g (3gfg agg2|bgaf gfed|ecAB G2|
